X:1
T:Lady Dillon
T:Lady Dillon
T:Carolan
C:Carolan
L:1/8
M:4/4
K:Dmin
V:1 treble 
V:1
 F2 DE F2 F2 | AGTFE F2 F2 | GAGC G2 G2 |{B} A2 FA B4 | (A/B/c) Ac (B/c/d) Bd | AcAc BAGF | %6
{F} E2 DC{E} D2 C=B, | C4 C4 || FGAB c2 c2 | d2 TcB B4 | AB c2 BAGF | F2 GF E2{A} G2 | TG4 F2 f2 | %13
 efge fedc |{c} TB2 AB cBAG |{F} E2 CE AGTFE | F4 F4 || c'6 (b<a) (g<f) | (f<e)(f<d) (e<c)(f<e) | %19
 (f<d)(e<c) defg | ag z a b<ga<f | F>DE<C (b<g)(a<f) | (G<E)F<D d'<bc'<a | (B<G)(A<F) (g<e)(f<d) | %24
 c2 Te2 f4 ||[M:6/8] cdc cAF |{e} f3 e2 d | cdc cAF | B3 TA2 G | (A/B/c) cdc |{a} b3 a2 g | %31
 gag gec | f3 f3 | abc' c'd'c' | efg gab | agf efg | c3 c3 | AFc AFc | dBf dBb |{b} agf (e/f/g)e | %40
 f3 f3 || %41

